X:1
T:Title
%%score { ( 1 3 ) | ( 2 4 ) }
L:1/8
M:4/4
K:Ab
V:1 treble nm="Grand Piano"
V:3 treble 
V:2 bass 
V:4 bass 
V:1
 z4 z2[Q:1/4=106] [CE]>[CE] | [CE]2 [Ec]2 [CA]2 [EA]>[EG] | [DF]2 [=DB]2 [DB]2 [DB]>[FA] | %3
 G2 B2 A2 F2 |[M:3/4] [CE]6 |[M:1/4] [CE]>[CE] |[M:4/4] [CE]2 [Ec]2 [CA]2 [EA][EG] | %7
 [DF]2 [=DB]2 [DB]2 [DB]>[FA] | G2 d2 c2 B2 |[M:3/4] [A,CA]6 |[M:1/4] E>E |[M:4/4] E2 B2 B2 G>F | %12
 [CE]2 [CA]2 [CA]2 c>c | B2 e2 =d2 B2 |[M:5/4] [Ge]6 z2 c>B |[M:4/4] A2 e>f e2 c>A | %16
[M:39/32] z/4 z/4 z/4 z/4 z/4 z/4 z/4 z/4 z/4 z/4 z/4 z/4 z/4 z/4 z/4 z/4 z/4 z/4 z/4 z/4 z/4 z/4 z/4 z/4 z/4 z/4 z/ [Ge]/4-[Ge]/4-[Ge]/4-[Ge]/4-[Ge]/4-[Ge]/4-[Ge]/-<[Ge]/ z/4 | %17
[M:4/4] (5:4:5[Ae]2 c/ A/-A3/2c/ z4[Q:1/4=104][Q:1/4=103][Q:1/4=101][Q:1/4=100][Q:1/4=98][Q:1/4=97][Q:1/4=95][Q:1/4=94][Q:1/4=92][Q:1/4=90][Q:1/4=89][Q:1/4=87][Q:1/4=86][Q:1/4=84][Q:1/4=83][Q:1/4=81] | %18
[M:3/4] [CA]6 |] %19
V:2
 z4 z2 [A,,A,]>[A,,A,] | [A,,A,]2 [A,,A,]2 [A,,A,]2 [C,A,]2 | %2
 [D,A,]2 [B,,B,]2 [B,,B,]2 [B,,B,]>[B,,B,] | [E,B,E]2 [E,G,D]2 [E,A,C]2 [E,G,D]2 | %4
[M:3/4] [A,,A,]6 |[M:1/4] [A,,A,]>[A,,A,] |[M:4/4] [A,,A,]2 [A,,A,]2 [A,,A,]2 [C,A,]2 | %7
 [D,A,]2 [B,,B,]2 [B,,B,]2 [B,,B,]>[B,,B,] | [E,B,E]2 [E,G,E]2 [E,A,E]2 [E,G,D]2 |[M:3/4] A,,6 | %10
[M:1/4] E,>E, |[M:4/4] [E,G,]2 [E,G,E]2 [E,G,E]2 [E,E]>[E,G,D] | %12
 [A,,A,]2 [A,,A,]2 [A,,A,]2[K:treble] [A,EA]>[A,EA] | [B,EG]2 [B,EG]2 [B,FA]2 [B,=DA]2 | %14
[M:5/4][K:bass] [E,E]6 z2[K:treble] [A,E]>[A,D] | %15
[M:4/4] [A,C]2 [A,CA]>[A,DA] [A,CA]2[K:bass] [A,E]>[A,C] | %16
[M:39/32] [D,A,D]/4-[D,A,D]/4-[D,A,D]/4-[D,A,D]/4-[D,A,D]/-<[D,A,D]/[D,A,]/4-[D,A,]/4-[D,A,]/4-[D,A,]/4-[D,A,]/-<[D,A,]/[D,A,]/4-[D,A,]/4-[D,A,]/4-[D,A,]/4-[D,A,]/4-[D,A,]/4-[D,A,]/4-[D,A,]/4-[D,A,]/-<[D,A,]/[D,D]/4-[D,D]/4-[D,D]/4-[D,D]/4-[D,D]/-<[D,D]/[D,D]3/4 | %17
[M:4/4] (5:4:5[E,C]2 [E,A,E]/ [E,A,C]/-[E,A,C]3/2[E,A,E]/ [G,D]3- [G,D]/4 z/4 z/ | %18
[M:3/4] [A,,A,]6 |] %19
V:3
 x8 | x8 | x8 | x8 |[M:3/4] x6 |[M:1/4] x2 |[M:4/4] x8 | x8 | x8 |[M:3/4] x6 |[M:1/4] x2 | %11
[M:4/4] x8 | x8 | x8 |[M:5/4] x10 |[M:4/4] x8 | %16
[M:39/32] F/4-F/4-F/4-F/4-F/-<F/[Fd]/4-[Fd]/4-[Fd]/4-[Fd]/4-[Fd]/-<[Fd]/[Fd]/4-[Fd]/4-[Fd]/4-[Fd]/4-[Fd]/4-[Fd]/4-[Fd]/4-[Fd]/4-[Fd]/-<[Fd]/ z/4 z/4 z/4 z/4 z/4 z/4 z/ [Af]3/4 | %17
[M:4/4] z4 (3:2:2B4 [CA]2 |[M:3/4] x6 |] %19
V:4
 x8 | x8 | x8 | x8 |[M:3/4] x6 |[M:1/4] x2 |[M:4/4] x8 | x8 | x8 |[M:3/4] x6 |[M:1/4] x2 | %11
[M:4/4] x8 | x6[K:treble] x2 | x8 |[M:5/4][K:bass] x8[K:treble] x2 |[M:4/4] x6[K:bass] x2 | %16
[M:39/32] x39/4 |[M:4/4] z4 (3:2:2E,4 [A,,A,]2 |[M:3/4] x6 |] %19

